build/service/ArchiveSolid.svg

<svg xmlns="http://www.w3.org/2000/svg" fill="none" viewBox="0 0 24 24" focusable="false"><path d="M0 0H24V24H0z"/><path fill="#74767B" fill-rule="evenodd" d="M7 4C5.34315 4 4 5.34315 4 7L4 8.65C4 9.0366 4.3134 9.35 4.7 9.35L19.3 9.35C19.6866 9.35 20 9.0366 20 8.65L20 7C20 5.34315 18.6569 4 17 4L7 4ZM4.7 10.65C4.3134 10.65 4 10.9634 4 11.35L4 17C4 18.6569 5.34315 20 7 20L17 20C18.6569 20 20 18.6569 20 17L20 11.35C20 10.9634 19.6866 10.65 19.3 10.65L4.7 10.65ZM9.35 14.1303C9.35 13.7714 9.64102 13.4803 10 13.4803L14 13.4803C14.359 13.4803 14.65 13.7714 14.65 14.1303C14.65 14.4893 14.359 14.7803 14 14.7803L10 14.7803C9.64102 14.7803 9.35 14.4893 9.35 14.1303Z"/></svg>

<svg xmlns="http://www.w3.org/2000/svg" fill="none" viewBox="0 0 24 24" focusable="false"><path fill="#74767B" fill-rule="evenodd" d="M7 4C5.34 4 4 5.34 4 7v1.64c0 .39.31.71.7.71h14.59c.39 0 .71-.32.71-.71V7c0-1.66-1.35-3-3-3zm-2.3 6.65c-.39 0-.7.31-.7.7V17c0 1.65 1.34 3 3 3h10c1.65 0 3-1.35 3-3v-5.65c0-.39-.32-.7-.71-.7zm4.65 3.48c0-.36.29-.65.65-.65h4c.35 0 .64.29.64.65 0 .35-.29.65-.64.65h-4c-.36 0-.65-.3-.65-.65"/></svg>
